img/ecosysystem.svg

<svg width="80" height="80" viewBox="0 0 80 80" fill="none" xmlns="http://www.w3.org/2000/svg">
<path opacity="0.1" d="M40.0001 79.9995C62.0915 79.9995 80.0001 62.091 80.0001 39.9998C80.0001 17.9085 62.0915 0 40.0001 0C17.9086 0 0 17.9085 0 39.9998C0 62.091 17.9086 79.9995 40.0001 79.9995Z" fill="#367CFF"/>
<path d="M22.6951 28.0018C22.8397 27.8397 23.0148 27.7076 23.2105 27.6131C23.4061 27.5187 23.6185 27.4637 23.8354 27.4513C24.0523 27.4389 24.2695 27.4693 24.4747 27.5409C24.6798 27.6125 24.8688 27.7237 25.031 27.8683L30.3109 32.5775L28.1084 35.047L22.8284 30.3378C22.6663 30.1932 22.5342 30.018 22.4398 29.8224C22.3453 29.6267 22.2903 29.4143 22.2779 29.1974C22.2655 28.9805 22.296 28.7633 22.3676 28.5581C22.4391 28.353 22.5504 28.1639 22.6951 28.0018Z" fill="white"/>
<path d="M28.1226 35.2772L22.7212 30.4594C22.543 30.3005 22.3979 30.1081 22.2941 29.8931C22.1903 29.6781 22.1299 29.4448 22.1162 29.2065C22.1026 28.9681 22.1361 28.7295 22.2147 28.5041C22.2933 28.2787 22.4156 28.0709 22.5745 27.8928C22.7334 27.7146 22.9258 27.5695 23.1408 27.4657C23.3558 27.3619 23.5891 27.3015 23.8274 27.2879C24.0657 27.2743 24.3044 27.3077 24.5298 27.3863C24.7552 27.465 24.9629 27.5872 25.1411 27.7461L30.5432 32.564L28.1226 35.2772ZM23.9326 27.6116C23.9037 27.6116 23.8747 27.6124 23.8456 27.614C23.5512 27.6309 23.2684 27.7347 23.0329 27.9124C22.7975 28.09 22.62 28.3334 22.523 28.6119C22.4259 28.8904 22.4136 29.1914 22.4875 29.4769C22.5615 29.7623 22.7185 30.0195 22.9386 30.2157L28.0967 34.8162L30.0816 32.5907L24.9236 27.9903C24.6515 27.746 24.2987 27.6111 23.9331 27.6116H23.9326Z" fill="#292A2E"/>
<path d="M51.8945 35.0468L49.6921 32.5774L54.972 27.8682C55.2995 27.5762 55.7295 27.4261 56.1676 27.4512C56.6057 27.4762 57.0159 27.6742 57.3079 28.0017C57.6 28.3291 57.75 28.7592 57.725 29.1973C57.6999 29.6353 57.5019 30.0455 57.1745 30.3376L51.8945 35.0468Z" fill="white"/>
<path d="M51.8809 35.2772L49.4609 32.564L54.8629 27.7461C55.2227 27.4252 55.6952 27.2604 56.1766 27.2879C56.6579 27.3154 57.1086 27.533 57.4295 27.8928C57.7504 28.2526 57.9152 28.7251 57.8877 29.2065C57.8602 29.6878 57.6426 30.1385 57.2828 30.4594L51.8809 35.2772ZM49.9223 32.5905L51.9073 34.8159L57.0653 30.2157C57.2115 30.0854 57.3305 29.9276 57.4156 29.7512C57.5007 29.5749 57.5503 29.3835 57.5615 29.188C57.5726 28.9925 57.5452 28.7968 57.4807 28.6119C57.4162 28.427 57.3159 28.2566 57.1856 28.1105C57.0553 27.9644 56.8974 27.8454 56.7211 27.7602C56.5447 27.6751 56.3534 27.6255 56.1579 27.6144C55.9624 27.6032 55.7666 27.6307 55.5817 27.6952C55.3969 27.7596 55.2265 27.8599 55.0804 27.9903L49.9223 32.5905Z" fill="#292A2E"/>
<path d="M54.0937 38.1098C55.2714 43.3253 56.8838 46.6807 56.0809 48.6078C55.6588 49.6207 54.7926 50.4701 53.3587 50.4701C51.1234 50.4701 51.1234 47.834 48.888 47.834C46.6527 47.834 46.653 50.4701 44.4179 50.4701C42.1828 50.4701 42.1831 47.834 39.9482 47.834C37.7133 47.834 37.7132 50.4701 35.4782 50.4701C33.2432 50.4701 33.2433 47.834 31.0084 47.834C28.7736 47.834 28.7738 50.4701 26.5392 50.4701C25.2123 50.4701 24.4623 49.6887 23.9867 48.7857C22.8436 46.6162 25.5077 41.8424 26.5392 37.6327C27.6788 32.981 27.5828 27.1869 27.7357 23.6923C28.0307 16.9533 33.2036 11.4785 39.9496 11.4785C46.6957 11.4785 51.6722 16.9647 52.1635 23.6923C52.4284 27.3192 53.0156 33.3355 54.0937 38.1098Z" fill="white"/>
<path d="M53.3579 50.635C52.1639 50.635 51.5708 49.9354 50.9969 49.2582C50.4475 48.6103 49.9286 47.9985 48.8873 47.9985C47.8459 47.9985 47.3277 48.6103 46.7779 49.2582C46.2042 49.9348 45.6109 50.635 44.4172 50.635C43.2234 50.635 42.6303 49.9354 42.0567 49.2582C41.5073 48.6103 40.9884 47.9985 39.9474 47.9985C38.9064 47.9985 38.3879 48.6103 37.8381 49.2582C37.2644 49.9348 36.6713 50.635 35.4774 50.635C34.2835 50.635 33.6902 49.9354 33.1175 49.259C32.5681 48.611 32.0494 47.9992 31.0083 47.9992C29.9672 47.9992 29.4487 48.611 28.8992 49.259C28.3257 49.9355 27.7326 50.6357 26.539 50.6357C25.3517 50.6357 24.4691 50.056 23.8406 48.8633C23.0437 47.3508 24.0009 44.6763 25.0144 41.8454C25.5177 40.4392 26.0379 38.9852 26.379 37.5947C27.2905 33.8744 27.4059 29.503 27.4985 25.9903C27.5203 25.1595 27.541 24.3746 27.5716 23.6862C27.7178 20.3504 29.0441 17.2458 31.3068 14.9439C32.4313 13.7915 33.7758 12.8765 35.2605 12.2531C36.7452 11.6298 38.3399 11.3108 39.9501 11.315C41.5499 11.3112 43.1339 11.6312 44.6068 12.2557C46.0797 12.8802 47.411 13.7963 48.5205 14.9489C50.7309 17.2247 52.0832 20.3262 52.3283 23.6815C52.5646 26.9167 53.1289 33.0884 54.2548 38.0747C54.6367 39.7659 55.0641 41.2598 55.4412 42.5778C56.2285 45.3301 56.7975 47.3186 56.2331 48.6723C55.9266 49.4052 55.1469 50.635 53.3579 50.635ZM48.8873 47.6694C50.0813 47.6694 50.6745 48.369 51.2482 49.0461C51.7977 49.6941 52.3166 50.3059 53.3579 50.3059C54.9558 50.3059 55.654 49.2027 55.9281 48.5449C56.4478 47.2976 55.8915 45.3557 55.1231 42.6678C54.7454 41.3455 54.316 39.8471 53.9322 38.1468C52.8016 33.1393 52.2354 26.9493 51.9985 23.705C51.4962 16.829 46.316 11.6438 39.9487 11.6438C33.4882 11.6438 28.1954 16.9395 27.899 23.7001C27.869 24.3856 27.8483 25.169 27.8258 25.9983C27.7378 29.3405 27.617 33.9177 26.6971 37.6725C26.3525 39.0795 25.8289 40.5419 25.3228 41.9561C24.3345 44.7169 23.4009 47.3251 24.1304 48.7095C24.6964 49.7836 25.4836 50.3056 26.5372 50.3056C27.5782 50.3056 28.0967 49.6937 28.6462 49.0458C29.2197 48.3691 29.8128 47.669 31.0064 47.669C32.2001 47.669 32.7934 48.3686 33.3669 49.0458C33.9163 49.6937 34.4351 50.3056 35.4762 50.3056C36.5173 50.3056 37.0363 49.6936 37.5856 49.0458C38.1593 48.3691 38.7524 47.669 39.9462 47.669C41.1399 47.669 41.7332 48.3687 42.3067 49.0458C42.856 49.6937 43.3747 50.3056 44.4159 50.3056C45.4572 50.3056 45.9761 49.6936 46.5254 49.0458C47.1003 48.3696 47.6934 47.6694 48.8873 47.6694Z" fill="#292A2E"/>
<path d="M35.3578 24.4807C36.1055 24.4807 36.7116 23.8745 36.7116 23.1268C36.7116 22.3791 36.1055 21.7729 35.3578 21.7729C34.6101 21.7729 34.0039 22.3791 34.0039 23.1268C34.0039 23.8745 34.6101 24.4807 35.3578 24.4807Z" fill="#292A2E"/>
<path d="M44.6429 24.4807C45.3906 24.4807 45.9968 23.8745 45.9968 23.1268C45.9968 22.3791 45.3906 21.7729 44.6429 21.7729C43.8952 21.7729 43.2891 22.3791 43.2891 23.1268C43.2891 23.8745 43.8952 24.4807 44.6429 24.4807Z" fill="#292A2E"/>
<path d="M42.4267 26.7804C42.5049 26.7802 42.5821 26.7974 42.6527 26.8308C42.7234 26.8642 42.7857 26.913 42.8351 26.9735C42.8846 27.034 42.9199 27.1047 42.9385 27.1806C42.9572 27.2565 42.9587 27.3356 42.9429 27.4121C42.6527 28.7695 41.4464 29.6227 40.0023 29.6227C38.5581 29.6227 37.3518 28.7699 37.0616 27.4121C37.0458 27.3356 37.0473 27.2565 37.066 27.1806C37.0846 27.1047 37.12 27.0339 37.1695 26.9734C37.2189 26.9129 37.2812 26.8642 37.3519 26.8308C37.4226 26.7974 37.4998 26.7802 37.5779 26.7804H42.4267Z" fill="white"/>
<path d="M40.0016 29.7876C38.4457 29.7876 37.1993 28.8469 36.8998 27.4467C36.8785 27.347 36.8798 27.2438 36.9037 27.1447C36.9276 27.0456 36.9734 26.9531 37.0378 26.874C37.1026 26.7934 37.1848 26.7284 37.2782 26.6838C37.3716 26.6392 37.4738 26.6161 37.5773 26.6163H42.4264C42.5299 26.6162 42.6321 26.6392 42.7255 26.6838C42.8188 26.7284 42.901 26.7934 42.9659 26.874C43.0303 26.9531 43.0761 27.0456 43.0999 27.1447C43.1238 27.2438 43.1251 27.347 43.1038 27.4467C42.8039 28.8469 41.5571 29.7876 40.0016 29.7876ZM37.577 26.9453C37.5226 26.9452 37.469 26.9574 37.4199 26.9808C37.3709 27.0043 37.3277 27.0384 37.2936 27.0808C37.2602 27.1218 37.2364 27.1697 37.224 27.2211C37.2115 27.2725 37.2108 27.3261 37.2219 27.3778C37.4878 28.6221 38.6048 29.4582 40.0013 29.4582C41.3979 29.4582 42.5149 28.6221 42.781 27.3778C42.792 27.3261 42.7912 27.2725 42.7787 27.2211C42.7663 27.1697 42.7424 27.1217 42.709 27.0808C42.6749 27.0384 42.6317 27.0043 42.5827 26.9808C42.5337 26.9574 42.48 26.9452 42.4257 26.9453H37.577Z" fill="#292A2E"/>
<path d="M71.8235 64.2367C64.5157 73.8179 52.98 80 40.0006 80C27.0212 80 15.4856 73.8179 8.17773 64.2367C16.52 61.0981 27.7047 59.1792 40.0006 59.1792C52.2965 59.1792 63.4807 61.0981 71.8235 64.2367Z" fill="#367CFF"/>
<path d="M75.181 20.9492L54.6523 20.8615C54.6523 17.433 56.5835 16.758 58.6365 16.2012C60.6894 15.6444 61.613 11.876 65.1804 11.6615C67.2871 11.5348 68.392 12.077 69.307 12.7751C69.3083 12.7763 69.3082 12.7776 69.3095 12.7776C71.6019 15.2441 73.5746 17.9896 75.181 20.9492Z" fill="white"/>
<path d="M16.6241 46.424L0.52688 46.4934C0.251922 44.8127 0.0850674 43.1161 0.0273438 41.4141C3.55334 40.9145 3.1927 38.1123 7.40342 38.3669C10.5274 38.5545 11.3388 41.8551 13.1359 42.3425C14.933 42.8298 16.6241 43.4225 16.6241 46.424Z" fill="white"/>
</svg>

<svg width="80" height="80" fill="none" xmlns="http://www.w3.org/2000/svg"><path opacity=".1" d="M40 80c22.092 0 40-17.909 40-40S62.092 0 40 0C17.91 0 0 17.909 0 40s17.909 40 40 40Z" fill="#367CFF"/><path d="M22.695 28.002a1.655 1.655 0 0 1 2.336-.134l5.28 4.71-2.203 2.469-5.28-4.71a1.654 1.654 0 0 1-.133-2.335Z" fill="#fff"/><path d="M28.123 35.277 22.72 30.46a1.817 1.817 0 1 1 2.42-2.713l5.402 4.818-2.42 2.713Zm-4.19-7.665c-.03 0-.058 0-.087.002a1.491 1.491 0 0 0-.907 2.602l5.158 4.6 1.985-2.225-5.158-4.6a1.48 1.48 0 0 0-.99-.38h-.001Z" fill="#292A2E"/><path d="m51.895 35.047-2.203-2.47 5.28-4.709a1.654 1.654 0 0 1 2.203 2.47l-5.28 4.709Z" fill="#fff"/><path d="m51.88 35.277-2.42-2.713 5.403-4.818a1.818 1.818 0 1 1 2.42 2.713l-5.402 4.818Zm-1.958-2.687 1.985 2.226 5.158-4.6a1.488 1.488 0 0 0 .12-2.106 1.493 1.493 0 0 0-2.105-.12l-5.158 4.6Z" fill="#292A2E"/><path d="M54.094 38.11c1.177 5.215 2.79 8.57 1.987 10.498-.422 1.013-1.288 1.862-2.722 1.862-2.236 0-2.236-2.636-4.471-2.636s-2.235 2.636-4.47 2.636-2.235-2.636-4.47-2.636-2.235 2.636-4.47 2.636-2.235-2.636-4.47-2.636c-2.234 0-2.234 2.636-4.469 2.636-1.327 0-2.077-.781-2.552-1.684-1.143-2.17 1.52-6.944 2.552-11.153 1.14-4.652 1.044-10.446 1.197-13.94.295-6.74 5.468-12.215 12.214-12.215s11.722 5.487 12.213 12.214c.265 3.627.853 9.644 1.93 14.418Z" fill="#fff"/><path d="M53.358 50.635c-1.194 0-1.787-.7-2.361-1.377-.55-.648-1.068-1.26-2.11-1.26-1.041 0-1.56.612-2.11 1.26-.573.677-1.166 1.377-2.36 1.377s-1.787-.7-2.36-1.377c-.55-.648-1.069-1.26-2.11-1.26-1.04 0-1.56.612-2.109 1.26-.574.677-1.167 1.377-2.36 1.377-1.195 0-1.788-.7-2.36-1.376-.55-.648-1.069-1.26-2.11-1.26-1.04 0-1.56.612-2.109 1.26-.573.676-1.166 1.377-2.36 1.377-1.187 0-2.07-.58-2.698-1.773-.797-1.512.16-4.187 1.173-7.018.504-1.406 1.024-2.86 1.365-4.25.912-3.72 1.027-8.092 1.12-11.605.021-.83.042-1.615.073-2.304.146-3.336 1.472-6.44 3.735-8.742a12.033 12.033 0 0 1 8.643-3.629 11.857 11.857 0 0 1 8.57 3.634c2.21 2.276 3.563 5.377 3.808 8.732.237 3.236.8 9.407 1.927 14.394.382 1.69.81 3.185 1.186 4.503.787 2.752 1.356 4.74.792 6.094-.306.733-1.086 1.963-2.875 1.963Zm-4.47-2.966c1.193 0 1.787.7 2.36 1.377.55.648 1.069 1.26 2.11 1.26 1.598 0 2.296-1.103 2.57-1.761.52-1.247-.036-3.19-.805-5.877-.378-1.322-.807-2.82-1.19-4.521-1.131-5.008-1.698-11.198-1.934-14.442-.503-6.876-5.683-12.061-12.05-12.061-6.46 0-11.754 5.295-12.05 12.056-.03.686-.05 1.469-.073 2.298-.088 3.342-.209 7.92-1.129 11.674-.345 1.408-.868 2.87-1.374 4.284-.989 2.76-1.922 5.37-1.193 6.753.566 1.075 1.354 1.597 2.407 1.597 1.041 0 1.56-.612 2.11-1.26.573-.677 1.166-1.377 2.36-1.377 1.193 0 1.786.7 2.36 1.377.55.648 1.068 1.26 2.11 1.26 1.04 0 1.56-.612 2.109-1.26.573-.677 1.166-1.377 2.36-1.377s1.787.7 2.36 1.377c.55.648 1.069 1.26 2.11 1.26s1.56-.612 2.11-1.26c.574-.676 1.167-1.377 2.361-1.377Z" fill="#292A2E"/><path d="M35.358 24.48a1.354 1.354 0 1 0 0-2.707 1.354 1.354 0 0 0 0 2.708ZM44.643 24.48a1.354 1.354 0 1 0 0-2.707 1.354 1.354 0 0 0 0 2.708Z" fill="#292A2E"/><path d="M42.427 26.78a.525.525 0 0 1 .516.632c-.29 1.358-1.497 2.21-2.94 2.21-1.445 0-2.651-.852-2.941-2.21a.524.524 0 0 1 .516-.632h4.849Z" fill="#fff"/><path d="M40.002 29.788c-1.556 0-2.803-.941-3.102-2.341a.681.681 0 0 1 .138-.573.69.69 0 0 1 .54-.258h4.848a.692.692 0 0 1 .678.83c-.3 1.4-1.547 2.342-3.102 2.342Zm-2.425-2.843a.363.363 0 0 0-.353.276.351.351 0 0 0-.002.157c.266 1.244 1.383 2.08 2.78 2.08 1.396 0 2.513-.836 2.779-2.08a.353.353 0 0 0-.072-.297.364.364 0 0 0-.283-.136h-4.849Z" fill="#292A2E"/><path d="M71.823 64.237C64.516 73.817 52.98 80 40.001 80c-12.98 0-24.515-6.182-31.823-15.763C16.52 61.098 27.705 59.179 40 59.179s23.48 1.92 31.822 5.058Z" fill="#367CFF"/><path d="m75.181 20.95-20.529-.088c0-3.429 1.931-4.104 3.984-4.66 2.053-.558 2.977-4.326 6.544-4.54 2.107-.127 3.212.415 4.127 1.113l.002.003a40.107 40.107 0 0 1 5.872 8.171ZM16.624 46.424l-16.097.07a39.82 39.82 0 0 1-.5-5.08c3.526-.5 3.166-3.302 7.376-3.047 3.124.188 3.936 3.488 5.733 3.976 1.797.487 3.488 1.08 3.488 4.081Z" fill="#fff"/></svg>
